app/assets/images/heroicons/micro/arrow-down-tray.svg

<svg width="16" height="16" viewBox="0 0 16 16" fill="none" xmlns="http://www.w3.org/2000/svg">
<path d="M8.75 2.75C8.75 2.33579 8.41421 2 8 2C7.58579 2 7.25 2.33579 7.25 2.75L7.25 8.43934L5.03033 6.21967C4.73744 5.92678 4.26256 5.92678 3.96967 6.21967C3.67678 6.51256 3.67678 6.98744 3.96967 7.28033L7.46967 10.7803C7.76256 11.0732 8.23744 11.0732 8.53033 10.7803L12.0303 7.28033C12.3232 6.98744 12.3232 6.51256 12.0303 6.21967C11.7374 5.92678 11.2626 5.92678 10.9697 6.21967L8.75 8.43934L8.75 2.75Z" fill="#0F172A"/>
<path d="M3.5 9.75C3.5 9.33579 3.16421 9 2.75 9C2.33579 9 2 9.33579 2 9.75V11.25C2 12.7688 3.23122 14 4.75 14H11.25C12.7688 14 14 12.7688 14 11.25V9.75C14 9.33579 13.6642 9 13.25 9C12.8358 9 12.5 9.33579 12.5 9.75V11.25C12.5 11.9404 11.9404 12.5 11.25 12.5H4.75C4.05964 12.5 3.5 11.9404 3.5 11.25V9.75Z" fill="#0F172A"/>
</svg>

<svg xmlns="http://www.w3.org/2000/svg" viewBox="0 0 16 16" fill="currentColor" aria-hidden="true" data-slot="icon">
  <path d="M8.75 2.75a.75.75 0 0 0-1.5 0v5.69L5.03 6.22a.75.75 0 0 0-1.06 1.06l3.5 3.5a.75.75 0 0 0 1.06 0l3.5-3.5a.75.75 0 0 0-1.06-1.06L8.75 8.44V2.75Z"/>
  <path d="M3.5 9.75a.75.75 0 0 0-1.5 0v1.5A2.75 2.75 0 0 0 4.75 14h6.5A2.75 2.75 0 0 0 14 11.25v-1.5a.75.75 0 0 0-1.5 0v1.5c0 .69-.56 1.25-1.25 1.25h-6.5c-.69 0-1.25-.56-1.25-1.25v-1.5Z"/>
</svg>
